!!!SOCIAL_FUNCTION:	deer dance songs
!!!PDT:	1932
!!!OTL: No_81_Song_of_the_Nighthawk_(c).krn
!!!REG: Southwest
!!!LANG: Non-Tone
!!!LING_GROUP: Yuman-Cochimi
**kern	**kern
*staff2	*staff1
=1-	=1-
*clefF4	*clefF4
*k[f#]	*k[f#]
*M3/4	*M3/4
2.r	4r
.	8.r
.	16E\
.	4E\
=2	=2
2.r	8.B\L
.	16G\Jk
.	8.B\L
.	16B\Jk
.	4B\
=3	=3
2.r	8.G\L
.	16F#\Jk
.	8.G\L
.	16G\Jk
.	4G\
=4	=4
2.r	8.F#\L
.	16E\Jk
.	8.F#\L
.	16F#\Jk
.	4F#\
=5	=5
2.r	8.E/L
.	16C/Jk
.	8.E\L
.	16E\Jk
.	4E\
=6	=6
2.r	8.E\L
.	16E\Jk
.	4E\
.	4E\
=7	=7
2.r	8.E\L
.	16E\Jk
.	4E\
.	4E\
=8||	=8||
*M2/4	*M2/4
2r	2E\
=9	=9
2r	4r
.	4F#\
=10||	=10||
*M3/4	*M3/4
2.r	8.G\L
.	16F#\Jk
.	8.G\L
.	16G\Jk
.	4G\
=11	=11
2.r	8.F#\L
.	16E\Jk
.	8.F#\L
.	16F#\Jk
.	4F#\
=12	=12
2.r	4E\
.	4r
.	4F#\
=13	=13
2.r	8.G\L
.	16F#\Jk
.	8.G\L
.	16G\Jk
.	4G\
=14	=14
2.r	8.F#\L
.	16E\Jk
.	8.F#\L
.	16F#\Jk
.	4F#\
=15	=15
2.r	8.E/L
.	16C/Jk
.	8.E\L
.	16E\Jk
.	4E\
=16||	=16||
*M2/4	*M2/4
2r	16E\LK
.	8.E\J
.	4E\
=17	=17
2r	4E\
.	8E\
.	8r
=18	=18
2r	4E\
.	4C#/
=19	=19
2r	4E\
.	4r
=20	=20
2r	8r
.	8C#/
.	4C#/
=21||	=21||
*M3/4	*M3/4
2.r	8.E/L
.	16C#/Jk
.	8.E\L
.	16E\Jk
.	4E\
=22	=22
2.r	4E\
.	8r
.	8E\
.	4C#/
=23||	=23||
*M2/4	*M2/4
2r	8.E/L
.	16C#/Jk
.	8.E\L
.	16E\Jk
=24	=24
2r	4E\
.	4C#/
=25	=25
2r	8.E\L
.	16E\Jk
.	4E\
=26	=26
2r	8E\L
.	8E\J
.	4E\
=27	=27
2r	4E\
.	4E\
=28	=28
2r	4E\
.	4E\
=29	=29
2r	4E\
.	4r
==	==
*-	*-
